packages/ffe-icons/icons/filled/md/window.svg

<svg xmlns="http://www.w3.org/2000/svg" height="24" viewBox="0 -960 960 960" width="24"><path d="M509.999-450.001h310v237.692q0 29.827-21.241 51.067-21.24 21.241-51.067 21.241H509.999v-310Zm0-59.998v-310h237.692q29.827 0 51.067 21.241 21.241 21.24 21.241 51.067v237.692h-310Zm-59.998 0h-310v-237.692q0-29.827 21.241-51.067 21.24-21.241 51.067-21.241h237.692v310Zm0 59.998v310H212.309q-29.827 0-51.067-21.241-21.241-21.24-21.241-51.067v-237.692h310Z"/></svg>

<svg xmlns="http://www.w3.org/2000/svg" height="24" viewBox="0 -960 960 960" width="24"><path d="M510-450h310v237.69q0 29.83-21.24 51.07Q777.52-140 747.69-140H510v-310Zm0-60v-310h237.69q29.83 0 51.07 21.24Q820-777.52 820-747.69V-510H510Zm-60 0H140v-237.69q0-29.83 21.24-51.07Q182.48-820 212.31-820H450v310Zm0 60v310H212.31q-29.83 0-51.07-21.24Q140-182.48 140-212.31V-450h310Z"/></svg>
